X:1
T:The Streets of Whiterun
T:The Streets of Whiterun
T:The Elder Scrolls V: Skyrim
T:composed by Jeremy Soule
T:cover by HeavenEugene
C:composed by Jeremy Soule
Z:cover by HeavenEugene
%%score { 1 | 2 }
L:1/8
Q:1/4=85
M:4/4
K:E
V:1 treble nm="Piano" snm="Pno."
V:2 bass 
V:1
!p! [eb]2 [Be]2 z4 | [Be]2 [EB]2 z4 | [eb]2 [Be]2 z4 | [Be]2 [EB]2 z4 | [eb]2 [Be]2 z4 | %5
 [Be]2 [EB]2 z4 | [eb]2 [Be]2 z4 | [Be]2 [EB]2 z4 | z4 E2 [EG]2 |: [EG]4 [DF]4 |1 [B,E]4 [B,D]4 | %11
 [B,E]4 z4 | z2 z2 E2 [EG]2 :|2 [B,E]4 [B,D]2 [B,F]2 | [B,E]D [G,C]2 z4 | z4 E2 [EB]2 || %16
 [EGB]2 z2 [EA]2 z2 | [EG]2 z2 [DF]3/2D3/2F | [EF]G [EGB]2 z4 | z2 z2 E2 [EB]2 | %20
 [EGB]2 z2 [EA]2 z2 | [EG]3/2 [EG]2 z/ [DF]3/2D3/2F | ED [B,CE]4 z2 |!mp! [eb]2 [Be]2 z4 | %24
 [Be]2 [EB]2 z4 | [eb]2 [Be]2 z4 | [Be]2 [EB]2 z4 | [eb]2 [Be]2 z4 | [Be]2 [EB]2 z4 | %29
 E>E E>E E>E D>D | E>E E>E E>E D>D | E>E E>E E>E D>D | E>!<(!E E>E E>E [EG]2!<)! | %33
!mf! [EBg]4 [DAf]4 | [EBe]4 [DAd]4 | [EBe]4 [eb]2 [Be]2 | [Be]2 [EB]2 [EG]2 [EB]2 | [EBg]4 [DAf]4 | %38
 [EBe]2 [EB]2 [EAd]2 [EBf]2 | [EBe]2 [B,CE]4 z2 | z4!mp! E2 [EG]2 | G3/2 G2 z F3/2 F2 | %42
 E3/2 E2 z D3/2 F2 | ED C4 z2 |] %44
V:2
 [E,,E,]4 z4 | [B,,E,]2 [B,,E,]2 z4 | [E,,E,]4 z4 | [B,,E,]2 [B,,E,]2 z4 | z2 [B,,G,]2 [C,A,]4 | %5
 z2 [D,B,]2 [E,C]4 | z2 [E,E]2 [D,D]4 | [E,,B,,E,]4 z4 | [B,,E,]2 E,B,, [B,,E,]2 E,B,, |: %9
 A,,E,G,E, A,,E,G,E, |1 B,,E,F,E, B,,E,F,E, | C,E,G,E, C,E,G,E, | G,,E,G,B, CE,G,E, :|2 %13
 B,,E,F,E, B,,E,F,E, | C,E,G,E, C,E,G,E, | G,,E,G,B, CE,G,E, || A,,E,G,E, A,,E,G,E, | %17
 B,,E,F,E, B,,E,F,E, | C,E,G,E, D,E,D,C, | G,,E,G,B, CE,G,E, | A,,E,G,E, A,,E,G,E, | %21
 B,,E,F,E, B,,E,F,E, | E,D, !fermata![C,,G,,C,]4 z2 | E,B,,E,B,, E,B,,E,B,, | %24
 D,B,,D,B,, D,B,,D,B,, | A,,E,A,,E, A,,E,A,,E, | E,B,,E,B,, E,B,,E,B,, | D,B,,D,B,, D,B,,D,B,, | %28
 E,>E, E,>E, E,>E, D,>D, | [A,,E,]4 [A,,B,,E,]2 [B,,F,]2 | [C,G,]4 z2 [B,,F,]2 | %31
 [A,,E,]4 [A,,C,E,]2 [B,,F,]2 | [C,E,G,]4 G,,D,/F,/ G,B, | [A,,G,]E,C,E, F,E,A,,E, | %34
 E,D,B,,D, F,D,B,,E, | C,E,G,E, F,D,B,,E, | G,,E,G,B, CE,G,E, | [A,,G,]E,C,E, F,E,A,,E, | %38
 E,D,B,,D, F,D,B,,E, | [G,,C,E,]2 [C,,G,,C,]4 [E,,A,,C,F,]2 | [F,,B,,E,]4 z4 | %41
"^rit." [A,,E,G,]4 z2 [A,,E,G,]2 | [B,,E,F,]2 F,E, D,2 [B,,E,F,]2 | E,D, [C,E,G,]4 z2 |] %44

